svg/octagram_minus_outline.svg

<svg xmlns="http://www.w3.org/2000/svg" viewBox="0 0 24 24"><path d="M2.2 16.06 3.88 12 2.2 7.94l4.06-1.68L7.94 2.2 12 3.88l4.06-1.68 1.68 4.06 4.06 1.68L20.12 12l.51 1.22c-.52-.14-1.07-.22-1.63-.22-.21 0-.42 0-.62.03L17.95 12l1.24-3-2.98-1.21L15 4.81l-3 1.24-3-1.24-1.21 2.98L4.81 9l1.24 3-1.24 3 2.98 1.21L9 19.19l3-1.24 1.03.43c-.03.2-.03.41-.03.62 0 .56.08 1.11.22 1.63L12 20.12 7.94 21.8l-1.68-4.06zM15 18v2h8v-2z"/></svg>

<svg xmlns="http://www.w3.org/2000/svg" id="mdi-octagram-minus-outline" viewBox="0 0 24 24"><path d="M2.2 16.06L3.88 12L2.2 7.94L6.26 6.26L7.94 2.2L12 3.88L16.06 2.2L17.74 6.26L21.8 7.94L20.12 12L20.63 13.22C20.11 13.08 19.56 13 19 13C18.79 13 18.58 13 18.38 13.03L17.95 12L19.19 9L16.21 7.79L15 4.81L12 6.05L9 4.81L7.79 7.79L4.81 9L6.05 12L4.81 15L7.79 16.21L9 19.19L12 17.95L13.03 18.38C13 18.58 13 18.79 13 19C13 19.56 13.08 20.11 13.22 20.63L12 20.12L7.94 21.8L6.26 17.74L2.2 16.06M15 18V20H23V18H15Z" /></svg>
